public/images/sun.svg

<svg width="26" height="26" viewBox="0 0 26 26" fill="none" xmlns="http://www.w3.org/2000/svg">
<circle cx="13" cy="13" r="13" fill="white"/>
<g clip-path="url(#clip0)">
<path d="M20.3779 14.3362L18.7734 12.9208L20.3212 11.4442C20.3781 11.39 20.4015 11.3097 20.3827 11.2336C20.3639 11.1575 20.3057 11.0973 20.23 11.0754L18.17 10.4809L18.9314 8.48708C18.9593 8.41384 18.9459 8.33134 18.8961 8.27061C18.8463 8.2099 18.7677 8.18022 18.6899 8.19276L16.5725 8.53413L16.4003 6.40832C16.394 6.33021 16.3462 6.2614 16.275 6.22782C16.2039 6.19425 16.12 6.20096 16.0552 6.24543L14.2896 7.45662L13.2171 5.60963C13.1777 5.54178 13.1049 5.5 13.026 5.5C12.9472 5.5 12.8745 5.54178 12.8351 5.60963L11.6039 7.72979L9.47432 6.50069C9.40615 6.46135 9.32207 6.46117 9.25378 6.50017C9.18543 6.53916 9.14324 6.61146 9.14303 6.6898L9.13788 8.82247L7.00023 8.64628C6.92186 8.63983 6.84569 8.67549 6.80081 8.73985C6.7559 8.80422 6.74892 8.88754 6.78258 8.95838L7.69788 10.8871L5.69066 11.6395C5.61695 11.6671 5.56366 11.7318 5.55083 11.8091C5.53799 11.8864 5.56767 11.9646 5.62864 12.0143L7.2874 13.3664L5.79874 14.9018C5.74407 14.9582 5.72377 15.0394 5.74553 15.1146C5.76733 15.1899 5.82786 15.2479 5.90429 15.2668L7.98598 15.781L7.30351 17.8028C7.27843 17.8771 7.29513 17.959 7.34728 18.0177C7.39946 18.0765 7.47918 18.1031 7.55637 18.0875L9.65872 17.6644L9.91422 19.7819C9.92356 19.8597 9.97401 19.9266 10.0464 19.9574C10.1189 19.9882 10.2024 19.9783 10.2654 19.9313L11.9821 18.6526L13.1263 20.3977C13.1668 20.4615 13.2373 20.5 13.3128 20.5C13.3157 20.5 13.3186 20.4999 13.3215 20.4998C13.4002 20.4967 13.4713 20.4522 13.508 20.3828L14.5073 18.5546L16.319 19.6964C16.3855 19.7383 16.4694 19.7418 16.5393 19.7055C16.6091 19.6691 16.6541 19.5985 16.6574 19.5203L16.7462 17.3894L18.8753 17.6484C18.9534 17.6579 19.0309 17.6252 19.0783 17.5626C19.1257 17.5 19.1359 17.417 19.1051 17.3449L18.2661 15.3821L20.3012 14.7082C20.376 14.6835 20.4318 14.6209 20.4476 14.5442C20.4634 14.4675 20.4369 14.3882 20.3779 14.3362Z" fill="#FFA600"/>
<path d="M12.9517 17.5012C15.4607 17.5012 17.4947 15.4688 17.4947 12.9616C17.4947 10.4545 15.4607 8.42212 12.9517 8.42212C10.4426 8.42212 8.40862 10.4545 8.40862 12.9616C8.40862 15.4688 10.4426 17.5012 12.9517 17.5012Z" fill="#FFDB2D"/>
<path d="M12.9518 8.42212C12.838 8.42212 12.7253 8.42643 12.6136 8.43466C14.9647 8.60754 16.8184 10.5682 16.8184 12.9616C16.8184 15.355 14.9647 17.3157 12.6136 17.4886C12.7253 17.4968 12.838 17.5012 12.9518 17.5012C15.4608 17.5012 17.4948 15.4687 17.4948 12.9617C17.4948 10.4545 15.4608 8.42212 12.9518 8.42212Z" fill="#FFCA00"/>
</g>
<defs>
<clipPath id="clip0">
<rect width="15" height="15" fill="white" transform="translate(5.5 5.5)"/>
</clipPath>
</defs>
</svg>

<svg width="26" height="26" fill="none" xmlns="http://www.w3.org/2000/svg"><circle cx="13" cy="13" r="13" fill="#fff"/><g clip-path="url(#clip0)"><path d="M20.378 14.336l-1.605-1.415 1.548-1.477a.218.218 0 00-.091-.369l-2.06-.594.761-1.994a.219.219 0 00-.035-.216.221.221 0 00-.206-.078l-2.117.341-.173-2.126a.222.222 0 00-.345-.163L14.29 7.457 13.217 5.61a.22.22 0 00-.382 0l-1.231 2.12-2.13-1.23a.222.222 0 00-.331.19l-.005 2.132L7 8.646a.221.221 0 00-.2.094.218.218 0 00-.017.218l.915 1.93-2.007.752a.22.22 0 00-.062.374l1.658 1.352L5.8 14.902a.219.219 0 00.105.365l2.082.514-.682 2.022a.218.218 0 00.043.215.221.221 0 00.21.07l2.102-.424.255 2.118a.222.222 0 00.351.15l1.717-1.28 1.144 1.746a.22.22 0 00.187.102h.008a.22.22 0 00.187-.117l1-1.828 1.811 1.141a.222.222 0 00.338-.176l.09-2.13 2.128.258a.221.221 0 00.203-.085.218.218 0 00.027-.218l-.839-1.963 2.035-.674a.22.22 0 00.077-.372z" fill="#FFA600"/><path d="M12.952 17.501a4.541 4.541 0 004.543-4.54 4.541 4.541 0 00-4.543-4.539 4.541 4.541 0 00-4.543 4.54 4.541 4.541 0 004.543 4.54z" fill="#FFDB2D"/><path d="M12.952 8.422a4.6 4.6 0 00-.338.013 4.541 4.541 0 014.204 4.527 4.541 4.541 0 01-4.204 4.527 4.541 4.541 0 004.881-4.527 4.541 4.541 0 00-4.543-4.54z" fill="#FFCA00"/></g><defs><clipPath id="clip0"><path fill="#fff" transform="translate(5.5 5.5)" d="M0 0h15v15H0z"/></clipPath></defs></svg>
